desc:Fold output channels
// J.J. Girardot

slider1:64<2,64,1>Fold to
slider2:0<-120,20,0.5>Volume (dB)


@init
vals = 0;
vol = 1;
k = 2;

@slider
cnt = slider1;
v = slider2;
vol = v <= -120 ? 0 : 10 ^(v/20);

@block
k = num_ch;

@sample
memset(vals, 0, k);
i=0; loop (k,
    vals[i%cnt] += spl(i);
    i+=1;
);
i=0; loop (k,
    spl(i) = vol * vals[i];
    i+=1;
);

